SVG_Azure_All/Admin Consent.svg

<?xml version="1.0" encoding="UTF-8" standalone="no"?>
<!-- Generated by Microsoft Visio, SVG Export Admin Consent.svg Page-1 -->

<svg
   xmlns:dc="http://purl.org/dc/elements/1.1/"
   xmlns:cc="http://creativecommons.org/ns#"
   xmlns:rdf="http://www.w3.org/1999/02/22-rdf-syntax-ns#"
   xmlns:svg="http://www.w3.org/2000/svg"
   xmlns="http://www.w3.org/2000/svg"
   xmlns:sodipodi="http://sodipodi.sourceforge.net/DTD/sodipodi-0.dtd"
   xmlns:inkscape="http://www.inkscape.org/namespaces/inkscape"
   width="0.78739971in"
   height="0.78739971in"
   viewBox="0 0 56.692998 56.69293"
   xml:space="preserve"
   class="st3"
   version="1.1"
   id="svg24"
   sodipodi:docname="Admin Consent.svg"
   style="font-size:12px;overflow:visible;color-interpolation-filters:sRGB;fill:none;fill-rule:evenodd;stroke-linecap:square;stroke-miterlimit:3"
   inkscape:version="0.92.5 (2060ec1f9f, 2020-04-08)"><metadata
   id="metadata30"><rdf:RDF><cc:Work
       rdf:about=""><dc:format>image/svg+xml</dc:format><dc:type
         rdf:resource="http://purl.org/dc/dcmitype/StillImage" /></cc:Work></rdf:RDF></metadata><defs
   id="defs28" /><sodipodi:namedview
   pagecolor="#ffffff"
   bordercolor="#666666"
   borderopacity="1"
   objecttolerance="10"
   gridtolerance="10"
   guidetolerance="10"
   inkscape:pageopacity="0"
   inkscape:pageshadow="2"
   inkscape:window-width="640"
   inkscape:window-height="480"
   id="namedview26"
   showgrid="false"
   inkscape:zoom="1.7991711"
   inkscape:cx="37.795121"
   inkscape:cy="20.231719"
   inkscape:window-x="0"
   inkscape:window-y="0"
   inkscape:window-maximized="0"
   inkscape:current-layer="svg24" />
	<style
   type="text/css"
   id="style2">
	<![CDATA[
		.st1 {fill:#015cda;stroke:none;stroke-width:7.67025}
		.st2 {fill:#ffffff;stroke:none;stroke-width:7.67025}
		.st3 {fill:none;fill-rule:evenodd;font-size:12px;overflow:visible;stroke-linecap:square;stroke-miterlimit:3}
	]]>
	</style>

	<g
   id="g22"
   transform="translate(-7.67025,-7.6703584)">
		<title
   id="title4">Page-1</title>
		<g
   id="group10392-1"
   transform="translate(7.67025,-34.0157)">
			<title
   id="title6">Admin Consent</title>
			<g
   id="group10393-2">
				<title
   id="title8">g8</title>
				<g
   id="shape10394-3">
					<title
   id="title10">circle4</title>
					<circle
   cx="28.3465"
   cy="70.032501"
   class="st1"
   id="ellipse12"
   r="28.3465"
   style="fill:#015cda;stroke:none;stroke-width:7.67024994" />
				</g>
				<g
   id="shape10395-5"
   transform="translate(10.8921,-8.87244)">
					<title
   id="title15">path6</title>
					<path
   d="m 16.82,61.84 h -0.19 c -3.97,0 -7.64,1.4 -10.62,3.6 L 0,59.43 V 75.26 H 15.82 L 9.85,69.28 a 11.2039,11.2039 0 0 1 6.97,-2.34 c 5.94,0 10.86,4.18 11.9,9.64 h 5.22 A 17.2913,17.2913 -180 0 0 16.82,61.84 Z m 17.9,20.67 H 19.09 l 0.08,0.04 h -0.08 l 5.78,5.79 c -1.96,1.37 -4.3,2.11 -6.96,2.11 -5.36,0 -9.92,-3.63 -11.48,-8.51 H 0.95 A 17.3197,17.3197 -180 0 0 17.9,95.55 h 0.19 c 3.91,0 7.54,-1.35 10.49,-3.5 l 6.33,6.33 V 82.51 Z"
   class="st2"
   id="path17"
   inkscape:connector-curvature="0"
   style="fill:#ffffff;stroke:none;stroke-width:7.67024994" />
				</g>
			</g>
		</g>
	</g>
</svg>

<?xml version="1.0" encoding="UTF-8" standalone="no"?>
<!DOCTYPE svg PUBLIC "-//W3C//DTD SVG 1.1//EN" "http://www.w3.org/Graphics/SVG/1.1/DTD/svg11.dtd">
<!-- Generated by Microsoft Visio, SVG Export Admin Consent.svg Page-1 -->
<svg xmlns="http://www.w3.org/2000/svg" xmlns:xlink="http://www.w3.org/1999/xlink" xmlns:ev="http://www.w3.org/2001/xml-events"
		width="1.00046in" height="1.36637in" viewBox="0 0 72.0334 98.3789" xml:space="preserve" color-interpolation-filters="sRGB"
		class="st3">
	<style type="text/css">
	<![CDATA[
		.st1 {fill:#015cda;stroke:none;stroke-width:7.67025}
		.st2 {fill:#ffffff;stroke:none;stroke-width:7.67025}
		.st3 {fill:none;fill-rule:evenodd;font-size:12px;overflow:visible;stroke-linecap:square;stroke-miterlimit:3}
	]]>
	</style>

	<g>
		<title>Page-1</title>
		<g id="group10161-1" transform="translate(7.67025,-34.0157)">
			<title>Admin Consent</title>
			<g id="group10162-2">
				<title>g8</title>
				<g id="shape10163-3">
					<title>circle4</title>
					<ellipse cx="28.3465" cy="70.0325" rx="28.3465" ry="28.3465" class="st1"/>
				</g>
				<g id="shape10164-5" transform="translate(10.8921,-8.87244)">
					<title>path6</title>
					<path d="M16.82 61.84 L16.63 61.84 C12.66 61.84 8.99 63.24 6.01 65.44 L0 59.43 L0 75.26 L15.82 75.26 L9.85 69.28
								 A11.2039 11.2039 0 0 1 16.82 66.94 C22.76 66.94 27.68 71.12 28.72 76.58 L33.94 76.58 A17.2913 17.2913
								 -180 0 0 16.82 61.84 ZM34.72 82.51 L19.09 82.51 L19.17 82.55 L19.09 82.55 L24.87 88.34 C22.91 89.71
								 20.57 90.45 17.91 90.45 C12.55 90.45 7.99 86.82 6.43 81.94 L0.95 81.94 A17.3197 17.3197 -180 0 0
								 17.9 95.55 L18.09 95.55 C22 95.55 25.63 94.2 28.58 92.05 L34.91 98.38 L34.91 82.51 L34.72 82.51
								 Z" class="st2"/>
				</g>
			</g>
		</g>
	</g>
</svg>
